src/lib/packages/icons/src/assets/line/user-alt.svg

<svg xmlns="http://www.w3.org/2000/svg" width="24" height="24" fill="none"><path fill="currentColor" d="M12.009 10.75a4.255 4.255 0 0 1-4.25-4.25 4.255 4.255 0 0 1 4.25-4.25 4.255 4.255 0 0 1 4.25 4.25 4.255 4.255 0 0 1-4.25 4.25Zm0-7a2.752 2.752 0 0 0-2.75 2.75 2.752 2.752 0 0 0 2.75 2.75 2.752 2.752 0 0 0 2.75-2.75 2.753 2.753 0 0 0-2.75-2.75ZM19.75 21v-2.981c0-2.661-1.506-5.769-5.75-5.769h-4c-4.244 0-5.75 3.107-5.75 5.769V21a.75.75 0 0 0 1.5 0v-2.981c0-1.001.307-4.269 4.25-4.269h4c3.943 0 4.25 3.267 4.25 4.269V21a.75.75 0 0 0 1.5 0Z"/></svg>

<svg width="24" height="24" viewBox="0 0 24 24" fill="none" xmlns="http://www.w3.org/2000/svg">
<path d="M12.009 10.75C9.66503 10.75 7.75903 8.843 7.75903 6.5C7.75903 4.157 9.66503 2.25 12.009 2.25C14.353 2.25 16.259 4.157 16.259 6.5C16.259 8.843 14.353 10.75 12.009 10.75ZM12.009 3.75C10.492 3.75 9.25903 4.983 9.25903 6.5C9.25903 8.017 10.492 9.25 12.009 9.25C13.526 9.25 14.759 8.017 14.759 6.5C14.759 4.983 13.525 3.75 12.009 3.75ZM19.75 21V18.019C19.75 15.358 18.244 12.25 14 12.25H10C5.756 12.25 4.25 15.357 4.25 18.019V21C4.25 21.414 4.586 21.75 5 21.75C5.414 21.75 5.75 21.414 5.75 21V18.019C5.75 17.018 6.057 13.75 10 13.75H14C17.943 13.75 18.25 17.017 18.25 18.019V21C18.25 21.414 18.586 21.75 19 21.75C19.414 21.75 19.75 21.414 19.75 21Z" fill="currentColor"/>
</svg>
